!!!OTL: WER LIEBEN WILL MUSS LEIDEN
!!!ARE: Europa, Mitteleuropa, Deutschland, Hessen, Darmstadt
!!!SCT: E0617A
!!!YEM: Copyright 1995, estate of Helmut Schaffrath.
**kern
*ICvox
*Ivox
*M6/8
*k[]
*C:
{8G
=1
4c
8E
4A
8G
=2
8G
8F
4.r}
{16B
16c
=3
4d
8F
4A
8G
=4
4E
4.r}
{8G
=5
4e
8d
4c
8B
=6
8B
8A
4.r}
{8A
=7
8G
8c
8e
8f
8d
8B
=8
4.c
4r}
==
!!!AGN: Liebes - Lied
!!!ONB: ESAC (Essen Associative Code) Database: ERK2
!!!AMT: compound duple
!!!AIN: vox
!!!EED: Helmut Schaffrath
!!!EEV: 1.0
*-
